X:18959
T:Xiraldilla (CT 053)
R:Xiraldilla
C:Tradicional
S:Música Tradicional Asturiana, (C) Tello & Tito. Asturies, 2001.
S:http://pagina.de/MusTradAst <telloytito@asturies.org>
N:Xiraldilla, dictada por María García Marqués, de Cuideiru.
O:Cuideiru
A:Asturies
Z:Cancioneru de Torner 053
M:3/8
L:1/8
Q:3/8=88
W:Mírame, mírate
W:y te haré una seña;
W:¡cuántas veces los ojos
W:sirven de lengua!
W:
W:Tender la manta, tenderla,
W:tenderla sobre la arena
W:y a la luz de la luna
W:dormir en ella.
W:
W:Tender la manta, tenderla,
W:tenderla sobre la arena.
K:C
|: G2 B|ddc|ddc|d2 e|(d2 c)|[1 B2 z:|[2 B2 B|
dcA|G2 A|(B2 A)|G2 B|dcA|G2 A|(B2 A)|G2 z|G2 B|ddc|ddc|d2 e|(d2 c)|B2 B|
dcA|G2 A|(B2 A)|G2 B|dcA|G2 A|(B2 A)|G2 z||


